X: 7
T: The Fermoy Lasses
R: reel
M: 4/4
L: 1/8
K: Gmaj
|:GEE2BEE2|GEE2BcBA|GEE2BEE2|AFDFAcBA|GEE2BEE2|GEE2BcBA|G2GFGBdB|AFDFAcBA:||:G2BGdGBG|G2Bdefg|G2BGdGBG|AFGFAcBA|G2BGdGBG|G2Bdefg|afgededB|AFDFAcBA:||


Tune 219	Setting 28863

